X: 514
T: Jiefu huan xiaoyi
%%abc-version 2.0
%%abcx-abcm2ps-target-version 5.9.1 (29 Sep 2008)
%%abc-creator hum2abc beta
%%abcx-conversion-date 2013/10/02 07:52:30
%%abc-edited-by Helmut Schaffrath
%%humdrum-veritas 574198226
%%humdrum-veritas-data 3000939859
%%continueall 1
%%barnumbers 0
L: 1/4
M: 2/4
K: A
zf [I:setbarnb 1]| 
ee/ c/ | 
fe/ f/ | 
e2 | 
zf | 
ee/ c/ | 
e/B3/ | 
zd | 
ee/ f/ | 
ee/ c/ | 
B2 | 
zd | 
e3/B// A// | 
B/E3/ |]  



